X:1
T:White Christmas
T:White Christmas
T:Movimento Coral Feevale - Concerto de Natal - 2016
T:Movimento Coral Feevale - Concerto de Natal - 2016
T:Movimento Coral Feevale - Concerto de Natal - 2016
T:Movimento Coral Feevale - Concerto de Natal - 2016
Z:Movimento Coral Feevale - Concerto de Natal - 2016
%%score [ ( 1 2 ) 3 4 5 ]
L:1/8
M:4/4
K:C
V:1 treble nm="Soprano" snm="S."
V:2 treble 
V:3 treble nm="Contralto" snm="C."
V:4 bass nm="Tenor" snm="T."
V:5 bass nm="Baixo" snm="B."
V:1
 z8 | z8 | z8 | z4 z2 C2 | D2 D2 D E2 F | G2 G2 G3 A | (3B2 c2 B2 A2 B2 | c6 E2 | %8
w: |||The|sun is shin- ing, the|grass is green, the|or- ange and palm trees|sway; There's|
 (3F2 F2 F2 A3 B, | G6 E2 | (3F2 F2 F2 A3 B, | C8 | z2 D2 D2 D2 | D2 ED C2 D2 | E8- | E8 | %16
w: nev- er been such a|day in|Bev- er- ly Hills, L.|A.|But it's De-|cem- ber the twen- ty|fourth,|_|
 z2 ^F2 F2 F2 | ^F2 GF E2 F2 | G8- | G8 || E8 | F2 E2 ^D2 E2 | F8 | ^F2 G6 | z2 A2 B2 c2 | %25
w: and I am|long- ing to be up|north.|_|I'm|dream- ing of a|white|Christ- mas,|just like the|
 d2 c2 B3 A | G8- | G2 z2 C2 D2 | E4 E4 | E2 A4 G2 | C4 C4 | C2 G4 F2 | E8 | F2 E2 D2 C2 | D8- | %35
w: ones I used to|know.|_ Where the|tree- tops|glis- ten and|child- ren|lis- ten to|hear|sleigh bells in the|snow.|
 D6 z2 | E8 | F2 E2 ^D2 E2 | F8 | ^F2 G6 | z2 A2 B2 c2 | d2 c2 B3 A | G8- | G2 z2 C2 D2 | E4 E4 | %45
w: _|I'm|dream- ing of a|white|Christ- mas|with ev- 'ry|Chirst- mas card I|write.|_ May your|days be|
 E2 A4 G2 | c8- | c4 z2 CD | E4 E4 | A3 B, B,2 B,2 | C8 | z8 || d8 | f2 e2 ^d2 e2 | f8 | %55
w: mer- ry and|bright.|_ And may|all your|Christ- mas- es be|white.||I'm|dream- ing of a|white|
[K:A] [df]2 [eg]6 | z8 | z8 | z8 | z8 | z8 | z4 z2 G2 | C4 C4 | C2 G4 F2 | E8 | F2 G2 A2 B2 | d8- | %67
w: Christ- mas.||||||and|chil- dren|lis- ten to|hear|sleigh bells in the|snow.|
 d6 z2 | e8 | f2 e2 ^d2 e2 | f8 |[K:A] [df]2 [eg]6 | z8 | z8 | z8 | z4 C2 D2 | E4 E4 | E2 A4 G2 | %78
w: _|I'm|dream- ing of a|white|Christ- mas.||||May your|days be|mer- ry and|
 c8- | !fermata!c4 C2 D2 | E4 E4 | A3 F B2 G2 | c8- | c8- | c8- | !fermata!c8 |] %86
w: bright.|_ And may|all your|Christ- mas- es be|white.|_|||
V:2
 x8 | x8 | x8 | x8 | x8 | x8 | x8 | x8 | x8 | x8 | x8 | x8 | x8 | x8 | x8 | x8 | x8 | x8 | x8 | %19
 x8 || x8 | x8 | x8 | x8 | z2 x6 | x8 | x8 | x8 | x8 | x8 | x8 | x8 | x8 | x8 | x8 | x8 | x8 | x8 | %38
 x8 | x8 | x8 | x8 | x8 | x8 | x8 | x8 | x8 | x8 | x8 | x8 | x8 | x8 || x8 | x8 | (c6 =d2) | %55
[K:A] x8 | x8 | x8 | x8 | x8 | x8 | x8 | x8 | x8 | x8 | x8 | x8 | x8 | x8 | x8 | (c6 =d2) | %71
[K:A] x8 | x8 | x8 | x8 | x8 | x8 | x8 | x8 | x8 | x8 | x8 | x8 | x8 | x8 | x8 |] %86
V:3
 z8 | z8 | z8 | z4 z2 C2 | D2 D2 D E2 D | D2 D2 C3 E | (3G2 A2 G2 F2 F2 | (A4 G2) E2 | %8
w: |||The|sun is shin- ing, the|grass is green, the|or- ange and palm trees|sway; _ There's|
 (3F2 F2 F2 A3 B, | E6 E2 | (3F2 F2 F2 A3 B, | C8 | (C8 | C2 B,2 C2 D2 | D4 C4 | B,4 C4) | %16
w: nev- er been such a|day in|Bev- er- ly Hills, L.|A.|Oo|_ _ _ _|||
 z2 ^F2 F2 F2 | ^F2 GF E2 ^D2 | =D4 _D4 | (C4 B,4) || E8 | F2 E2 ^D2 E2 | F8 | ^F2 G6 | %24
w: and I am|long- ing to be up|north, up|north. _|I'm|dream- ing of a|white|Christ- mas,|
 z2 A2 B2 c2 | d2 c2 B3 A | G8- | G2 z2 C2 D2 | E4 E4 | E2 E4 E2 | C4 C4 | C2 C4 C2 | C8 | %33
w: just like the|ones I used to|know|_ Where the|tree- tops|glis- ten and|child- ren|lis- ten to|hear|
 D2 C2 D2 C2 | (C8 | B,6) z2 | E8 | F2 E2 ^D2 E2 | F8 | ^F2 G6 | z2 A2 B2 c2 | d2 c2 B3 A | G8- | %43
w: sleigh bells in the|snow.|_|I'm|dream- ing of a|white|Christ- mas|with ev- 'ry|Chirst- mas card I|write.|
 G2 z2 C2 D2 | E4 E4 | E2 E4 E2 | A8- | A4 z2 CD | E4 E4 | A3 B, B,2 B,2 | C8 | z8 || e8 | %53
w: _ May your|days be|mer- ry and|bright.|_ And may|all your|Christ- mas- es be|white.||I'm|
 d2 c2 B2 c2 | A8 |[K:A] A2 B6 | z8 | z8 | z8 | z8 | z8 | z4 z2 G2 | C4 C4 | C2 G4 F2 | E8 | %65
w: dream- ing of a|white|Christ- mas.||||||and|chil- dren|lis- ten to|hear|
 F2 G2 A2 ^F2 | [FA]8- | [FA]6 z2 | c8 | d2 c2 B2 c2 | A8 |[K:A] A2 B6 | z8 | z8 | z8 | z4 C2 D2 | %76
w: sleigh bells in the|snow.|_|I'm|dream- ing of a|white|Christ- mas.||||May your|
 E4 E4 | E2 E4 E2 | A8- | !fermata!A4 C2 D2 | E4 ^C4 | F3 F B2 z2 | z2 (E2 FE^DE | F4) =D4 | %84
w: days be|mer- ry and|bright.|_ And may|all your|Christ- mas- es|Ah, _ _ _ _|_ be|
 [DG]8- | !fermata![DG]8 |] %86
w: white.|_|
V:4
 z8 | z8 | z8 | z4 z2 C2 | (DC)(B,A,) B, B,2 B, | B,2 B,2 A,3 C | (3D2 D2 D2 C2 D2 | (F4 E2) G,2 | %8
w: |||The|sun * is * shin- ing, the|grass is green, the|or- ange and palm trees|sway; _ There's|
 (3A,2 A,2 A,2 F,3 G, | (D2 C4) G,2 | (3A,2 A,2 A,2 F,3 G, | C8 | (_A,8 | G,4 =A,2 B,2 | %14
w: nev- er been such a|day * in|Bev- er- ly Hills, L.|A.|Oo|_ _ _|
 C2 B,2 A,2 G,2- | G,8) | z2 ^F,2 F,2 F,2 | ^F,2 G,F, E,2 A,2 | B,4 _B,4 | (A,4 F,4) || G,8 | %21
w: ||and I am|long- ing to be up|north, up|north. _|I'm|
 A,2 G,2 ^F,2 G,2 | A,8 | ^A,2 B,6 | z2 C2 B,2 =A,2 | F,2 A,2 D3 C | (B,2 C2 G,4- | %27
w: dream- ing of a|white|Christ- mas,|just like the|ones I used to|know _ _|
 G,2) z2 C2 B,2 | (C2 G,2) (C2 B,2) | _B,2 C4 B,2 | A,4 A,4 | _A,2 =A,4 A,2 | =A,8 | %33
w: _ Where the|tree- * tops *|glis- ten and|child- ren|lis- ten to|hear|
 C2 A,2 A,2 A,2 | (A,8 | G,6) z2 | G,8 | A,2 G,2 ^F,2 G,2 | A,8 | ^A,2 B,6 | z2 C2 B,2 =A,2 | %41
w: sleigh bells in the|snow.|_|I'm|dream- ing of a|white|Christ- mas|with ev- 'ry|
 F,2 A,2 D3 C | (B,2 C2 G,4- | G,2) z2 C2 A,2 | C4 (C2 B,2) | _B,2 C4 D2 | (E2 D4 C2 | D4) z2 CB, | %48
w: Chirst- mas card I|write. _ _|_ May your|days be *|mer- ry and|bright. _ _|_ And may|
 C4 G,4 | F,3 G, G,2 G,2 | C8 | z8 || E8 | F2 E2 ^D2 E2 | =D8 |[K:A] E2 F6 | z8 | z8 | z8 | %59
w: all your|Christ- mas- es be|white.||I'm|dream- ing of a|white|Christ- mas.||||
 z4 C,2 D,2 | E,4 E,4 | E,2 A,4 z2 | z8 | z4 z2 _A,2 | G,8 | A,2 B,2 C2 D2 | ((C8 | B,2) B,4) z2 | %68
w: Where the|tree- tops|glis- ten||to|hear|sleigh bells in the|snow.|_ _|
 E8 | F2 E2 ^D2 E2 | =D8 |[K:A] E2 F6 | z8 | z8 | z8 | z4 C2 B,2 | C4 (C2 B,2) | _B,2 C4 D2 | %78
w: I'm|dream- ing of a|white|Christ- mas.||||May your|days be *|mer- ry and|
 E2 D4 C2 | D4 C2 B,2 | (3(C2 B,2 A,2) _B,4 | =C3 C D2 z2 | z2 (G,2 A,G,^F,G, | A,4) _A,4 | =A,8- | %85
w: bright. _ _|_ And may|all * * your|Christ- mas- es|Ah, _ _ _ _|_ be|white.|
 !fermata!A,8 |] %86
w: _|
V:5
 z8 | z8 | z8 | z4 z2 C2 | ((DC))((B,A,)) G, G,2 F, | E,2 E,2 E,3 E, | (3D,2 D,2 D,2 D,2 G,2 | %7
w: |||The|sun * is * shin- ing, the|grass is green, the|or- ange and palm trees|
 C,6 G,2 | (3A,2 A,2 A,2 F,3 G, | ((D2 C4)) G,2 | (3A,2 A,2 A,2 F,3 G, | C,8 | F,8 | F,4 F,2 G,2 | %14
w: sway; There's|nev- er been such a|day * in|Bev- er- ly Hills, L.|A.|Oo|_ _ _|
 C,8- | C,8 | z2 ^F,2 F,2 F,2 | ^F,2 G,F, E,2 B,,2 | E,4 _E,4 | D,4 G,,4 || G,8 | %21
w: ||and I am|long- ing to be up|north, up|north. _|I'm|
 A,2 G,2 ^F,2 G,2 | A,8 | ^A,2 B,6 | z2 C2 B,2 =A,2 | F,2 A,2 D3 C | (B,2 C2 G,4- | %27
w: dream- ing of a|white|Christ- mas,|just like the|ones I used to|know _ _|
 G,2) z2 C2 B,2 | (C2 G,2) (C2 B,2) | _B,2 G,4 C,2 | (F,2 C,2) (G,2 F,2) | F,2 F,4 F,2 | G,8 | %33
w: _ Where the|tree- * tops *|glis- ten and|child- ren * *|lis- ten to|hear|
 A,2 G,2 ^F,2 F,2 | (=F,8 | G,6) z2 | G,8 | A,2 G,2 ^F,2 G,2 | A,8 | ^A,2 B,6 | z2 C2 B,2 =A,2 | %41
w: sleigh bells in the|snow.|_|I'm|dream- ing of a|white|Christ- mas|with ev- 'ry|
 F,2 A,2 D3 C | (B,2 C2 G,4- | G,2) z2 C2 A,2 | C4 (C2 B,2) | _B,2 B,4 B,2 | (F,8 | F,4) z2 CB, | %48
w: Chirst- mas card I|write. _ _|_ May your|days be *|mer- ry and|bright.|_ And may|
 C4 G,4 | F,3 G, G,2 G,2 | C,8 | z8 || C8 | D2 C2 B,2 C2 | A,8 |[K:A] ^F,2 G,6 | z8 | z8 | z8 | %59
w: all your|Christ- mas- es be|white.||I'm|dream- ing of a|white|Christ- mas.||||
 z4 C,2 D,2 | E,4 E,4 | E,2 A,4 z2 | z8 | z4 z2 _A,2 | G,8 | A,2 B,2 C2 A,2 | G,8- | G,6 z2 | C8 | %69
w: Where the|tree- tops|glis- ten||to|hear|sleigh bells in the|snow.|_|I'm|
 D2 C2 B,2 C2 | A,8 |[K:A] ^F,2 G,6 | z8 | z8 | z8 | z4 C2 B,2 | C4 (C2 B,2) | _B,2 B,4 B,2 | %78
w: dream- ing of a|white|Christ- mas.||||May your|days be *|mer- ry and|
 (F,8 | _B,,4) C2 B,2 | (3(C2 B,2 A,2) G,4 | G,3 A, G,2 G,2 | C,8- | C,4 F,4 | E,8- | %85
w: bright.|_ And may|all * * your|Christ- mas- es be|white.|_ _||
 !fermata![C,,E,]8 |] %86
w: |

